X:1
T:Title
%%score { 1 | ( 2 3 ) }
L:1/8
M:4/4
K:Eb
V:1 treble nm="Grand Piano"
V:2 bass 
V:3 bass 
V:1
 z4 z2[Q:1/4=100] E>F | G3 [GB] [Ac]>[GB] [_G=A]>[=GB] | G6 B>B | %3
 [DB]3 [DF] [_D=E]>[=DF] [_EG]>[FA] | G6 E>F | G3 [GB] [Ac]>[GB] [_G=A]>[=GB] | G6 z2 | %7
 F>B e>d d2 c2 | [DB]6 z2 | [DF]>[_D=E] [=DF]>[_EG] [DB]2 [Dc]2 | G6 E>E | %11
 c>=B c>[E=Ac] [F_Bd]2 [E_Ac]2 | [DB]6 [B,AB]2 | [Ge]2 .[CAc]2 [EGB]3 G | A>G A>B c2 F2 | %15
 B>G c>B G2 [DF]2 |[M:3/4] E6 |] %17
V:2
 z4 z2 [E,G,]>[E,A,E] | [E,B,E]3 [E,E] [E,E]>[E,E] [E,E]>[E,E] | [E,B,E]6 [E,G,E]>[E,G,E] | %3
 [B,,B,]3 [B,,B,] [B,,B,]>[B,,B,] [B,,B,]>[B,,B,] | [E,B,E]6 [E,G,]>[E,A,E] | %5
 [E,B,E]3 [E,E] [E,E]>[E,E] [E,E]>[E,E] | [E,B,E]6 z2 | %7
 [F,B,D]>[F,DF] [F,B,G]>[F,B,F] [F,B,F]2 [F,=A,E]2 | [B,,B,]6 z2 | %9
 [B,,B,]>[B,,B,] [B,,B,]>[B,,B,] [B,,F,]2 [B,,A,]2 | [E,B,E]6 [E,G,]>[E,G,] | %11
 [A,E]>[A,DA] [A,EA]>[K:bass]F, F,2 F,2 | B,6 B,,2 | [E,B,]2 z D E,3 [E,B,E] | %14
 [A,CE]>[A,B,E] [A,CE]>[G,B,E] [A,E]2 [A,B,D]2 | [G,B,E]>[E,B,E] [A,E]>[G,B,E] [B,E]2 [B,,A,]2 | %16
[M:3/4] [E,G,]6 |] %17
V:3
 x8 | x8 | x8 | x8 | x8 | x8 | x8 | x8 | x8 | x8 | x8 | x7/2[K:bass] x9/2 | x8 | z2 E,2 z4 | x8 | %15
 x8 |[M:3/4] x6 |] %17

